X: 31044
T: Paddy Clancy's
R: jig
M: 6/8
K: Dmajor
|:f|afd edc|dcB AFA|dcd ede|fef efg|
afd edc|dcB AFA|dcd ede|fdc d2:|
|:e|faf gbg|faf fed|fef gfg|afd e2 A|
faf g/a/bg|f/g/af fed|fef ede|f/e/dc d2:|

